X: 9665
T:Jenny's Chickens
M:C|
K:D
f3f fece|f3a eAce|~f3f fece|f2af eAce|\
fe(3fga fece|fe(3fga eAce|~f3f fece|a2^ga eAce||\
f~B3 fece|f~B3 eAce|fBBA ~B3d|f2af eAce|\
f~B3 ~gB3|f~B3 eAce|fBBA ~B3d|f2af edcA||\
(3BBB bB AbgB|(3BBB fB edcA|(3BBB bB aBgB| fgaf edcA|\
(3BBB bB aBgB|(3BBB fB edcA|(3BBB bB aBgB|fgaf eAce||
